assets/icons/sidebar/filled.svg

<?xml version="1.0" encoding="UTF-8" standalone="no"?>
<svg
   viewBox="0 0 24 24"
   width="24"
   height="24"
   version="1.1"
   id="svg22"
   sodipodi:docname="filled.svg"
   inkscape:version="1.2 (1:1.2.1+202207142221+cd75a1ee6d)"
   xmlns:inkscape="http://www.inkscape.org/namespaces/inkscape"
   xmlns:sodipodi="http://sodipodi.sourceforge.net/DTD/sodipodi-0.dtd"
   xmlns="http://www.w3.org/2000/svg"
   xmlns:svg="http://www.w3.org/2000/svg"
   xmlns:rdf="http://www.w3.org/1999/02/22-rdf-syntax-ns#"
   xmlns:cc="http://creativecommons.org/ns#"
   xmlns:dc="http://purl.org/dc/elements/1.1/">
  <metadata
     id="metadata28">
    <rdf:RDF>
      <cc:Work
         rdf:about="">
        <dc:format>image/svg+xml</dc:format>
        <dc:type
           rdf:resource="http://purl.org/dc/dcmitype/StillImage" />
      </cc:Work>
    </rdf:RDF>
  </metadata>
  <defs
     id="defs26" />
  <sodipodi:namedview
     pagecolor="#ffffff"
     bordercolor="#666666"
     borderopacity="1"
     objecttolerance="10"
     gridtolerance="10"
     guidetolerance="10"
     inkscape:pageopacity="0"
     inkscape:pageshadow="2"
     inkscape:window-width="1920"
     inkscape:window-height="1043"
     id="namedview24"
     showgrid="true"
     inkscape:zoom="19.445436"
     inkscape:cx="23.090251"
     inkscape:cy="9.7195044"
     inkscape:window-x="0"
     inkscape:window-y="0"
     inkscape:window-maximized="1"
     inkscape:current-layer="g6"
     inkscape:pagecheckerboard="0"
     inkscape:showpageshadow="2"
     inkscape:deskcolor="#d1d1d1">
    <inkscape:grid
       type="xygrid"
       id="grid1448" />
    <inkscape:grid
       type="xygrid"
       id="grid824"
       dotted="true"
       spacingx="0.5"
       spacingy="0.5"
       empspacing="10" />
  </sodipodi:namedview>
  <g
     color="#000000"
     fill="#808080"
     id="g6">
    <path
       id="path352"
       style="color:#000000;fill:#808080;fill-opacity:1"
       d="M 5.4550781 3 C 4.4864992 3.00898 3.7372579 3.0732698 3.1171875 3.4453125 C 2.7038072 3.6933408 2.3972494 4.101221 2.2285156 4.6074219 C 2.0979396 4.9991503 2.0326353 5.4546801 2.0097656 6 L 8 6 L 9 6 L 21.990234 6 C 21.967365 5.4546801 21.902062 4.9991503 21.771484 4.6074219 C 21.602752 4.101221 21.296194 3.6933408 20.882812 3.4453125 C 20.056053 2.9492562 18.999996 3 17.5 3 L 6.5 3 C 6.1250012 3 5.7779378 2.99701 5.4550781 3 z M 2 7 L 2 17.5 C 2 18.277775 2.0597824 18.886378 2.2285156 19.392578 C 2.3972494 19.89878 2.7038072 20.306659 3.1171875 20.554688 C 3.9439481 21.050744 5.0000045 21 6.5 21 L 8 21 L 8 7 L 2 7 z M 9 7 L 9 21 L 17.5 21 C 18.999996 21 20.056052 21.050738 20.882812 20.554688 C 21.296194 20.306659 21.602752 19.89878 21.771484 19.392578 C 21.940218 18.886378 22 18.277775 22 17.5 L 22 7 L 9 7 z " />
  </g>
</svg>

<svg width="24" height="24" xmlns="http://www.w3.org/2000/svg"><path style="color:#000;fill:gray;fill-opacity:1" d="M5.455 3c-.969.009-1.718.073-2.338.445-.413.248-.72.656-.888 1.162-.131.392-.196.848-.22 1.393H21.99c-.023-.545-.088-1-.219-1.393-.168-.506-.475-.914-.888-1.162C20.056 2.95 19 3 17.5 3h-11c-.375 0-.722-.003-1.045 0zM2 7v10.5c0 .778.06 1.386.229 1.893.168.506.475.914.888 1.162C3.944 21.05 5 21 6.5 21H8V7H2zm7 0v14h8.5c1.5 0 2.556.05 3.383-.445.413-.248.72-.656.888-1.162.17-.507.229-1.115.229-1.893V7H9z" color="#000" fill="gray"/></svg>
